assets/symbols/mulberry/beaker_1.svg

<svg height="850.394" viewBox="0 0 850.394 850.394" width="850.394" xmlns="http://www.w3.org/2000/svg"><g stroke="#231f20"><path d="m332.597 79.859h183.215" fill="#fff" stroke-width="21"/><path d="m483.649 79.796v152.688l144.208 395.282s25.942 83.843-30.54 113.64c-61.067 32.244-173.121 28.919-173.121 28.919-32.21 0-110.279 3.381-171.342-28.836-56.476-29.803-30.541-113.66-30.541-113.66l144.204-395.282v-152.688" fill="none" stroke-width="21"/><path d="m480.526 524.325h-57.686v173.037h57.686m-57.686-86.091h57.686m-54.2-45.782h30.825m-30.825 87.726h30.825" fill="none" stroke-width="14"/><path d="m480.526 351.866h-57.686v173.037h57.686m-57.686-86.09h57.686m-54.2-45.783h30.825m-30.825 87.725h30.825" fill="none" stroke-width="14"/></g><path d="m0 0h850.394v850.394h-850.394z" fill="none"/></svg>

<svg xmlns="http://www.w3.org/2000/svg" width="850.394" height="850.394" viewBox="0 0 850.394 850.394" overflow="visible"><path fill="#fff" stroke="#231f20" stroke-width="21" d="M332.597 79.859h183.215"/><path d="M483.649 79.796v152.688l144.208 395.282s25.942 83.843-30.54 113.64c-61.067 32.244-173.121 28.919-173.121 28.919-32.21 0-110.279 3.381-171.342-28.836-56.476-29.803-30.541-113.66-30.541-113.66l144.204-395.282V79.859" fill="none" stroke="#231f20" stroke-width="21"/><g fill="none" stroke="#231f20" stroke-width="14"><path d="M480.526 524.325H422.84v173.037h57.686M422.84 611.271h57.686M426.326 565.489h30.825M426.326 653.215h30.825"/></g><g fill="none" stroke="#231f20" stroke-width="14"><path d="M480.526 351.866H422.84v173.037h57.686M422.84 438.813h57.686M426.326 393.03h30.825M426.326 480.755h30.825"/></g><path fill="none" d="M0 0h850.394v850.394H0z"/></svg>
